src/lib/packages/icons/src/assets/filled/floppy-disk.svg

<svg xmlns="http://www.w3.org/2000/svg" width="24" height="24" fill="none"><path fill="currentColor" d="m20.6 6.6-3.1-3.1c-.3-.3-.7-.5-1.1-.5H6C4 3 3 4 3 6v12c0 2 1 3 3 3h12c2 0 3-1 3-3V7.6c0-.4-.2-.8-.4-1Zm-11.1.6h5c.4 0 .8.3.8.8 0 .4-.3.8-.8.8h-5c-.4 0-.7-.4-.7-.8s.3-.8.7-.8Zm7.5 12c0 .2-.1.3-.3.3H7.3c-.2 0-.3-.1-.3-.3v-4.7c0-1 .5-1.5 1.5-1.5h7c1 0 1.5.5 1.5 1.5v4.7Z"/></svg>

<svg width="24" height="24" viewBox="0 0 24 24" fill="none" xmlns="http://www.w3.org/2000/svg">
<path d="M20.6 6.6L17.5 3.5C17.2 3.2 16.8 3 16.4 3H6C4 3 3 4 3 6V18C3 20 4 21 6 21H18C20 21 21 20 21 18V7.6C21 7.2 20.8 6.8 20.6 6.6ZM9.5 7.2H14.5C14.9 7.2 15.3 7.5 15.3 8C15.3 8.4 15 8.8 14.5 8.8H9.5C9.1 8.8 8.8 8.4 8.8 8C8.8 7.6 9.1 7.2 9.5 7.2ZM17 19.2C17 19.4 16.9 19.5 16.7 19.5H7.3C7.1 19.5 7 19.4 7 19.2V14.5C7 13.5 7.5 13 8.5 13H15.5C16.5 13 17 13.5 17 14.5V19.2Z" fill="currentColor"/>
</svg>
